X:1
T:Title
%%score ( 1 2 ) ( 3 4 )
L:1/8
Q:1/4=90
M:4/4
K:Ab
V:1 treble nm="Strings 1, Treble"
V:2 treble 
V:3 bass nm="Strings 1, Bass"
V:4 bass 
V:1
 z4 z2 [CA][DB] | [Ec][Ec][Ec][Ec] [Fd][Ec][CA][DB] | [Ec]6 [Fd][Ec] | [DB]6 [CA][DB] | %4
w: 1.~Are~ you~|walk ing~ where~ the~ Mas ter's~ feet~ have~|trod?~ In~ His~|steps,~ bless ed~|
 [Ec]6 [CA][DB] | [Ec][Ec][Ec][Ec] [Fd][Ec][CA][DB] | [Ec]6 [Fd][Ec] | [DB]6 [Ec][DB] | [CA]6 cd | %9
w: steps;~ Is~ your~|life~ and~ all~ now~ hid~ with~ Christ~ in~|God?~ In~ His~|steps,~ bless ed~|steps.~ * *|
 e6 z2 | c6 z2 | [Ac][Ac][Ac][Ac] [Ac][EB][EA][Ac] | B6 z2 | e6 z2 | c6 z2 | %15
w: ||||||
 [Ac][EB][EA][Ac] [EB][EB][EA][EG] | [EA]6 z2 |] %17
w: ||
V:2
 x8 | x8 | x8 | x8 | x8 | x8 | x8 | x8 | x8 | z2 AA A2 AB | z2 AA A2 [EA][EB] | x8 | G2 FF G2 cd | %13
 z2 AA A2 AB | z2 AA A2 [Ad][Ad] | x8 | x8 |] %17
V:3
 z4 z2 [A,,E,][A,,E,] | [A,,A,][A,,A,][A,,A,][A,,A,] [A,,A,][A,,A,][A,,E,][A,,E,] | [A,,A,]6 z2 | %3
 z2 [E,G,][E,G,] [E,G,]2 z2 | z2 [A,,A,][A,,A,] [A,,A,]2 [A,,E,][A,,E,] | %5
 [A,,A,][A,,A,][A,,A,][A,,A,] [A,,A,][A,,A,][A,,E,][A,,E,] | [A,,A,]6 z2 | %7
 z2 [E,G,][E,G,] [E,G,]2 z2 | z2 [A,,A,][A,,E,] [A,,E,]2 A,B, | C6[K:treble] z2 | E6[K:bass] z2 | %11
 [A,E][A,E][A,E][A,E] [A,E][A,D][A,C][A,E] | [E,E]2 [B,,=D][B,,D] [E,E]2 A,B, | C6[K:treble] z2 | %14
 E6[K:bass] z2 | [E,E][E,D][E,C][E,E] [E,D][E,D][E,C][E,B,] | [A,,A,C]6 z2 |] %17
V:4
 x8 | x8 | x8 | x8 | x8 | x8 | x8 | x8 | x8 | z2 A,A, A,2[K:treble] CD | %10
 z2 A,A,[K:bass] A,2 [A,C][A,D] | x8 | x8 | z2 A,A, A,2[K:treble] CD | %14
 z2 A,A,[K:bass] A,2 [D,F][D,F] | x8 | x8 |] %17

